src/svg/uf242-battery-2,battery-half.svg

<!-- Generated by IcoMoon.io -->
<svg version="1.1" xmlns="http://www.w3.org/2000/svg" width="41" height="32" viewBox="0 0 41 32">
<path d="M4.571 22.857v-13.714h16v13.714h-16zM38.857 10.286c1.268 0 2.286 1.018 2.286 2.286v6.857c0 1.268-1.018 2.286-2.286 2.286v2.857c0 1.571-1.286 2.857-2.857 2.857h-33.143c-1.571 0-2.857-1.286-2.857-2.857v-17.143c0-1.571 1.286-2.857 2.857-2.857h33.143c1.571 0 2.857 1.286 2.857 2.857v2.857zM38.857 19.429v-6.857h-2.286v-5.143c0-0.321-0.25-0.571-0.571-0.571h-33.143c-0.321 0-0.571 0.25-0.571 0.571v17.143c0 0.321 0.25 0.571 0.571 0.571h33.143c0.321 0 0.571-0.25 0.571-0.571v-5.143h2.286z"></path>
</svg>

<svg xmlns="http://www.w3.org/2000/svg" width="41" height="32"><path d="M4.571 22.857V9.143h16v13.714h-16zm34.286-12.571a2.279 2.279 0 0 1 2.286 2.286v6.857a2.279 2.279 0 0 1-2.286 2.286v2.857A2.866 2.866 0 0 1 36 27.429H2.857A2.866 2.866 0 0 1 0 24.572V7.429a2.866 2.866 0 0 1 2.857-2.857H36a2.866 2.866 0 0 1 2.857 2.857v2.857zm0 9.143v-6.857h-2.286V7.429A.564.564 0 0 0 36 6.858H2.857a.564.564 0 0 0-.571.571v17.143c0 .321.25.571.571.571H36c.321 0 .571-.25.571-.571v-5.143h2.286z"/></svg>
